X: 5
T: 5. Rosin the Bow
M: 6/8
L: 1/8
Q: 3/8=140
K: G
D | GAB cde | d3 gdB | dcB Adc | B3A2 D | GAB cde | d3 gB^c | dAF EG^C | D3 D2 :|!
|: d | dbd cac | BgB A2 d | dbd cac | BgB A2 D | GAB cde | d3 gdB | ABc DEF | G3 G2 :|!

